usr/share/icons/biglinux-icons-material-dark/22/actions/tool_rounded_rectangle.svg

<svg xmlns="http://www.w3.org/2000/svg" viewBox="0 0 22 22">
  <defs id="defs3051">
    <style type="text/css" id="current-color-scheme">
      .ColorScheme-Text {
        color:#dedede;
      }
      </style>
  </defs>
 <path 
     style="fill:currentColor;fill-opacity:1;stroke:none" 
     d="M 8.5 5.5 C 5.453 5.5 3 7.953 3 11 C 3 14.047 5.453 16.5 8.5 16.5 L 13.5 16.5 C 16.547 16.5 19 14.047 19 11 C 19 7.953 16.547 5.5 13.5 5.5 L 8.5 5.5 z M 8.5 6.5 L 13.5 6.5 C 15.993 6.5 18 8.507 18 11 C 18 13.493 15.993 15.5 13.5 15.5 L 8.5 15.5 C 6.007 15.5 4 13.493 4 11 C 4 8.507 6.007 6.5 8.5 6.5 z "
	 class="ColorScheme-Text"
     />
</svg>

<svg xmlns="http://www.w3.org/2000/svg" viewBox="0 0 22 22">
<defs id="defs3051">
<style id="current-color-scheme" type="text/css">
.ColorScheme-Text{color:#dedede}
</style>
</defs>
<path d="M8.5 5.5A5.49 5.49 0 0 0 3 11c0 3.047 2.453 5.5 5.5 5.5h5c3.047 0 5.5-2.453 5.5-5.5s-2.453-5.5-5.5-5.5zm0 1h5A4.49 4.49 0 0 1 18 11a4.49 4.49 0 0 1-4.5 4.5h-5A4.49 4.49 0 0 1 4 11a4.49 4.49 0 0 1 4.5-4.5" class="ColorScheme-Text" style="fill:currentColor;fill-opacity:1;stroke:none"/>
</svg>
